X:282
T: ICH SOLLT EINMAL DEN BERG UMGEHN
N: E0877
O: Europa, Mitteleuropa, Deutschland; Rumaenien, Siebenbuergen
R: Hochzeits -, Ehestands - Lied
M: 4/4
L: 1/8
K: G
D2 | G2G2F2F2 | E2E2D2
D2 | G2G2F2F2 | E2E2D2
D2 | A2A2G2G2 | F2F2E2z
D | EDEFG2GA | BGAFG2

@@@ Tune index: 4595
